X:1
T: Joskvarnleken
R: Vals
S: Perjos Lars Halvarsson|utlärd av Perjos Lars Halvarsson
Z: Karin Arén
M: 3/4
L: 1/8
K: A
va3 b ag | a2 g2 eg | g2 f2 d2 | e2 (c2 A2) | A6 | 
va3 b ag | a2 g2 eg | g2 f2 d2 | e6 |1 e4 e2 :|2 z4 cd |: 
ve3 f ed | c2 A2 cA | B2 G2 Be | c2 (AB) cd |
ve3 f ed | c2 A2 ce | B2 uG2 uG2 |1 vA2 z2 (cd) :|2 vA2 z4 |]

